bernoullicharts/log_1_x_two-coin_special_case__bound.svg

<?xml version="1.0" encoding="utf-8" standalone="no"?>
<!DOCTYPE svg PUBLIC "-//W3C//DTD SVG 1.1//EN"
  "http://www.w3.org/Graphics/SVG/1.1/DTD/svg11.dtd">
<!-- Created with matplotlib (https://matplotlib.org/) -->
<svg height="345.6pt" version="1.1" viewBox="0 0 460.8 345.6" width="460.8pt" xmlns="http://www.w3.org/2000/svg" xmlns:xlink="http://www.w3.org/1999/xlink">
 <defs>
  <style type="text/css">
*{stroke-linecap:butt;stroke-linejoin:round;}
  </style>
 </defs>
 <g id="figure_1">
  <g id="patch_1">
   <path d="M 0 345.6 
L 460.8 345.6 
L 460.8 0 
L 0 0 
z
" style="fill:#ffffff;"/>
  </g>
  <g id="axes_1">
   <g id="patch_2">
    <path d="M 57.6 307.584 
L 414.72 307.584 
L 414.72 41.472 
L 57.6 41.472 
z
" style="fill:#ffffff;"/>
   </g>
   <g id="matplotlib.axis_1">
    <g id="xtick_1">
     <g id="line2d_1">
      <defs>
       <path d="M 0 0 
L 0 3.5 
" id="meeaad4805a" style="stroke:#000000;stroke-width:0.8;"/>
      </defs>
      <g>
       <use style="stroke:#000000;stroke-width:0.8;" x="73.800255" xlink:href="#meeaad4805a" y="307.584"/>
      </g>
     </g>
     <g id="text_1">
      <text style="font-family:DejaVu Sans;font-size:10px;font-style:normal;font-weight:normal;text-anchor:middle;" transform="rotate(-0, 73.800255, 322.182437)" x="73.800255" y="322.182437">0.0</text>
     </g>
    </g>
    <g id="xtick_2">
     <g id="line2d_2">
      <g>
       <use style="stroke:#000000;stroke-width:0.8;" x="138.744153" xlink:href="#meeaad4805a" y="307.584"/>
      </g>
     </g>
     <g id="text_2">
      <text style="font-family:DejaVu Sans;font-size:10px;font-style:normal;font-weight:normal;text-anchor:middle;" transform="rotate(-0, 138.744153, 322.182437)" x="138.744153" y="322.182437">0.2</text>
     </g>
    </g>
    <g id="xtick_3">
     <g id="line2d_3">
      <g>
       <use style="stroke:#000000;stroke-width:0.8;" x="203.688051" xlink:href="#meeaad4805a" y="307.584"/>
      </g>
     </g>
     <g id="text_3">
      <text style="font-family:DejaVu Sans;font-size:10px;font-style:normal;font-weight:normal;text-anchor:middle;" transform="rotate(-0, 203.688051, 322.182437)" x="203.688051" y="322.182437">0.4</text>
     </g>
    </g>
    <g id="xtick_4">
     <g id="line2d_4">
      <g>
       <use style="stroke:#000000;stroke-width:0.8;" x="268.631949" xlink:href="#meeaad4805a" y="307.584"/>
      </g>
     </g>
     <g id="text_4">
      <text style="font-family:DejaVu Sans;font-size:10px;font-style:normal;font-weight:normal;text-anchor:middle;" transform="rotate(-0, 268.631949, 322.182437)" x="268.631949" y="322.182437">0.6</text>
     </g>
    </g>
    <g id="xtick_5">
     <g id="line2d_5">
      <g>
       <use style="stroke:#000000;stroke-width:0.8;" x="333.575847" xlink:href="#meeaad4805a" y="307.584"/>
      </g>
     </g>
     <g id="text_5">
      <text style="font-family:DejaVu Sans;font-size:10px;font-style:normal;font-weight:normal;text-anchor:middle;" transform="rotate(-0, 333.575847, 322.182437)" x="333.575847" y="322.182437">0.8</text>
     </g>
    </g>
    <g id="xtick_6">
     <g id="line2d_6">
      <g>
       <use style="stroke:#000000;stroke-width:0.8;" x="398.519745" xlink:href="#meeaad4805a" y="307.584"/>
      </g>
     </g>
     <g id="text_6">
      <text style="font-family:DejaVu Sans;font-size:10px;font-style:normal;font-weight:normal;text-anchor:middle;" transform="rotate(-0, 398.519745, 322.182437)" x="398.519745" y="322.182437">1.0</text>
     </g>
    </g>
    <g id="text_7">
     <text style="font-family:DejaVu Sans;font-size:10px;font-style:normal;font-weight:normal;text-anchor:middle;" transform="rotate(-0, 236.16, 335.860562)" x="236.16" y="335.860562">Input Coin's Heads Probability (λ)</text>
    </g>
   </g>
   <g id="matplotlib.axis_2">
    <g id="ytick_1">
     <g id="line2d_7">
      <defs>
       <path d="M 0 0 
L -3.5 0 
" id="ma27e46f1bc" style="stroke:#000000;stroke-width:0.8;"/>
      </defs>
      <g>
       <use style="stroke:#000000;stroke-width:0.8;" x="57.6" xlink:href="#ma27e46f1bc" y="295.506321"/>
      </g>
     </g>
     <g id="text_8">
      <text style="font-family:DejaVu Sans;font-size:10px;font-style:normal;font-weight:normal;text-anchor:end;" transform="rotate(-0, 50.6, 299.30554)" x="50.6" y="299.30554">0.0</text>
     </g>
    </g>
    <g id="ytick_2">
     <g id="line2d_8">
      <g>
       <use style="stroke:#000000;stroke-width:0.8;" x="57.6" xlink:href="#ma27e46f1bc" y="264.328703"/>
      </g>
     </g>
     <g id="text_9">
      <text style="font-family:DejaVu Sans;font-size:10px;font-style:normal;font-weight:normal;text-anchor:end;" transform="rotate(-0, 50.6, 268.127921)" x="50.6" y="268.127921">0.2</text>
     </g>
    </g>
    <g id="ytick_3">
     <g id="line2d_9">
      <g>
       <use style="stroke:#000000;stroke-width:0.8;" x="57.6" xlink:href="#ma27e46f1bc" y="233.151084"/>
      </g>
     </g>
     <g id="text_10">
      <text style="font-family:DejaVu Sans;font-size:10px;font-style:normal;font-weight:normal;text-anchor:end;" transform="rotate(-0, 50.6, 236.950303)" x="50.6" y="236.950303">0.4</text>
     </g>
    </g>
    <g id="ytick_4">
     <g id="line2d_10">
      <g>
       <use style="stroke:#000000;stroke-width:0.8;" x="57.6" xlink:href="#ma27e46f1bc" y="201.973465"/>
      </g>
     </g>
     <g id="text_11">
      <text style="font-family:DejaVu Sans;font-size:10px;font-style:normal;font-weight:normal;text-anchor:end;" transform="rotate(-0, 50.6, 205.772684)" x="50.6" y="205.772684">0.6</text>
     </g>
    </g>
    <g id="ytick_5">
     <g id="line2d_11">
      <g>
       <use style="stroke:#000000;stroke-width:0.8;" x="57.6" xlink:href="#ma27e46f1bc" y="170.795846"/>
      </g>
     </g>
     <g id="text_12">
      <text style="font-family:DejaVu Sans;font-size:10px;font-style:normal;font-weight:normal;text-anchor:end;" transform="rotate(-0, 50.6, 174.595065)" x="50.6" y="174.595065">0.8</text>
     </g>
    </g>
    <g id="ytick_6">
     <g id="line2d_12">
      <g>
       <use style="stroke:#000000;stroke-width:0.8;" x="57.6" xlink:href="#ma27e46f1bc" y="139.618228"/>
      </g>
     </g>
     <g id="text_13">
      <text style="font-family:DejaVu Sans;font-size:10px;font-style:normal;font-weight:normal;text-anchor:end;" transform="rotate(-0, 50.6, 143.417446)" x="50.6" y="143.417446">1.0</text>
     </g>
    </g>
    <g id="ytick_7">
     <g id="line2d_13">
      <g>
       <use style="stroke:#000000;stroke-width:0.8;" x="57.6" xlink:href="#ma27e46f1bc" y="108.440609"/>
      </g>
     </g>
     <g id="text_14">
      <text style="font-family:DejaVu Sans;font-size:10px;font-style:normal;font-weight:normal;text-anchor:end;" transform="rotate(-0, 50.6, 112.239828)" x="50.6" y="112.239828">1.2</text>
     </g>
    </g>
    <g id="ytick_8">
     <g id="line2d_14">
      <g>
       <use style="stroke:#000000;stroke-width:0.8;" x="57.6" xlink:href="#ma27e46f1bc" y="77.26299"/>
      </g>
     </g>
     <g id="text_15">
      <text style="font-family:DejaVu Sans;font-size:10px;font-style:normal;font-weight:normal;text-anchor:end;" transform="rotate(-0, 50.6, 81.062209)" x="50.6" y="81.062209">1.4</text>
     </g>
    </g>
    <g id="ytick_9">
     <g id="line2d_15">
      <g>
       <use style="stroke:#000000;stroke-width:0.8;" x="57.6" xlink:href="#ma27e46f1bc" y="46.085372"/>
      </g>
     </g>
     <g id="text_16">
      <text style="font-family:DejaVu Sans;font-size:10px;font-style:normal;font-weight:normal;text-anchor:end;" transform="rotate(-0, 50.6, 49.88459)" x="50.6" y="49.88459">1.6</text>
     </g>
    </g>
    <g id="text_17">
     <text style="font-family:DejaVu Sans;font-size:10px;font-style:normal;font-weight:normal;text-anchor:middle;" transform="rotate(-90, 28.617187, 174.528)" x="28.617187" y="174.528">Coin Flips Needed</text>
    </g>
   </g>
   <g id="line2d_16">
    <path clip-path="url(#p52891f7efe)" d="M 73.832727 139.641608 
L 77.112066 141.980386 
L 80.391405 144.27574 
L 83.670744 146.529215 
L 86.950083 148.742298 
L 90.229421 150.916415 
L 93.50876 153.052937 
L 96.788099 155.153185 
L 100.067438 157.218427 
L 103.346777 159.249888 
L 106.626116 161.248745 
L 109.905455 163.216134 
L 113.184793 165.153151 
L 116.464132 167.060854 
L 119.743471 168.940265 
L 123.02281 170.79237 
L 126.302149 172.618125 
L 129.581488 174.418453 
L 132.860826 176.194248 
L 136.140165 177.946378 
L 139.419504 179.675682 
L 142.698843 181.382974 
L 145.978182 183.069045 
L 149.257521 184.734664 
L 152.53686 186.380578 
L 155.816198 188.007511 
L 159.095537 189.616173 
L 162.374876 191.20725 
L 165.654215 192.781414 
L 168.933554 194.33932 
L 172.212893 195.881607 
L 175.492231 197.4089 
L 178.77157 198.921809 
L 182.050909 200.420932 
L 185.330248 201.906854 
L 188.609587 203.380149 
L 191.888926 204.841381 
L 195.168264 206.291101 
L 198.447603 207.729853 
L 201.726942 209.158172 
L 205.006281 210.576584 
L 208.28562 211.985609 
L 211.564959 213.385759 
L 214.844298 214.777538 
L 218.123636 216.161448 
L 221.402975 217.537984 
L 224.682314 218.907635 
L 227.961653 220.270889 
L 231.240992 221.628229 
L 234.520331 222.980134 
L 237.799669 224.327084 
L 241.079008 225.669553 
L 244.358347 227.008018 
L 247.637686 228.342953 
L 250.917025 229.674833 
L 254.196364 231.004132 
L 257.475702 232.331327 
L 260.755041 233.656896 
L 264.03438 234.981319 
L 267.313719 236.30508 
L 270.593058 237.628664 
L 273.872397 238.952562 
L 277.151736 240.277272 
L 280.431074 241.603292 
L 283.710413 242.931132 
L 286.989752 244.261304 
L 290.269091 245.594331 
L 293.54843 246.930742 
L 296.827769 248.271078 
L 300.107107 249.615887 
L 303.386446 250.965729 
L 306.665785 252.321176 
L 309.945124 253.682814 
L 313.224463 255.051239 
L 316.503802 256.427065 
L 319.78314 257.810921 
L 323.062479 259.203452 
L 326.341818 260.605321 
L 329.621157 262.017213 
L 332.900496 263.439831 
L 336.179835 264.873901 
L 339.459174 266.320173 
L 342.738512 267.779422 
L 346.017851 269.25245 
L 349.29719 270.740089 
L 352.576529 272.243199 
L 355.855868 273.762677 
L 359.135207 275.299451 
L 362.414545 276.854488 
L 365.693884 278.428797 
L 368.973223 280.023425 
L 372.252562 281.63947 
L 375.531901 283.278075 
L 378.81124 284.940435 
L 382.090579 286.627804 
L 385.369917 288.341492 
L 388.649256 290.082875 
L 391.928595 291.853396 
L 395.207934 293.654573 
L 398.487273 295.488 
" style="fill:none;stroke:#1f77b4;stroke-linecap:square;stroke-width:1.5;"/>
   </g>
   <g id="line2d_17">
    <path clip-path="url(#p52891f7efe)" d="M 73.832727 53.568 
L 77.112066 60.427076 
L 80.391405 59.179971 
L 83.670744 74.768781 
L 86.950083 71.962795 
L 90.229421 65.415495 
L 93.50876 80.380752 
L 96.788099 64.16839 
L 100.067438 59.491748 
L 103.346777 77.886543 
L 106.626116 73.833452 
L 109.905455 71.962795 
L 113.184793 75.080557 
L 116.464132 72.274571 
L 119.743471 74.768781 
L 123.02281 77.574766 
L 126.302149 78.198319 
L 129.581488 74.768781 
L 132.860826 89.422262 
L 136.140165 78.821871 
L 139.419504 75.704109 
L 142.698843 86.928052 
L 145.978182 93.163576 
L 149.257521 85.992723 
L 152.53686 83.498514 
L 155.816198 91.292919 
L 159.095537 93.787128 
L 162.374876 92.540023 
L 165.654215 93.787128 
L 168.933554 94.098904 
L 172.212893 95.969561 
L 175.492231 91.604695 
L 178.77157 95.034233 
L 182.050909 93.163576 
L 185.330248 92.540023 
L 188.609587 100.022652 
L 191.888926 93.163576 
L 195.168264 97.216666 
L 198.447603 100.646204 
L 201.726942 101.581533 
L 205.006281 103.45219 
L 208.28562 99.710876 
L 211.564959 107.50528 
L 214.844298 103.140414 
L 218.123636 103.763966 
L 221.402975 108.752385 
L 224.682314 111.246595 
L 227.961653 111.246595 
L 231.240992 110.934818 
L 234.520331 113.117252 
L 237.799669 112.493699 
L 241.079008 111.870147 
L 244.358347 109.064161 
L 247.637686 108.128833 
L 250.917025 115.923237 
L 254.196364 113.429028 
L 257.475702 112.181923 
L 260.755041 117.793895 
L 264.03438 114.05258 
L 267.313719 118.417447 
L 270.593058 115.923237 
L 273.872397 114.676133 
L 277.151736 117.170342 
L 280.431074 118.729223 
L 283.710413 117.170342 
L 286.989752 119.040999 
L 290.269091 124.029418 
L 293.54843 120.911656 
L 296.827769 122.158761 
L 300.107107 126.211852 
L 303.386446 123.717642 
L 306.665785 122.470537 
L 309.945124 125.588299 
L 313.224463 124.652971 
L 316.503802 126.211852 
L 319.78314 129.017837 
L 323.062479 125.276523 
L 326.341818 128.082509 
L 329.621157 130.888494 
L 332.900496 131.200271 
L 336.179835 129.953166 
L 339.459174 126.835404 
L 342.738512 129.953166 
L 346.017851 131.200271 
L 349.29719 130.576718 
L 352.576529 130.264942 
L 355.855868 133.070928 
L 359.135207 134.318033 
L 362.414545 134.629809 
L 365.693884 134.629809 
L 368.973223 138.371123 
L 372.252562 134.941585 
L 375.531901 134.941585 
L 378.81124 137.435794 
L 382.090579 137.435794 
L 385.369917 138.682899 
L 388.649256 137.435794 
L 391.928595 139.618228 
L 395.207934 139.618228 
L 398.487273 139.618228 
" style="fill:none;stroke:#ff7f0e;stroke-linecap:square;stroke-width:1.5;"/>
   </g>
   <g id="patch_3">
    <path d="M 57.6 307.584 
L 57.6 41.472 
" style="fill:none;stroke:#000000;stroke-linecap:square;stroke-linejoin:miter;stroke-width:0.8;"/>
   </g>
   <g id="patch_4">
    <path d="M 414.72 307.584 
L 414.72 41.472 
" style="fill:none;stroke:#000000;stroke-linecap:square;stroke-linejoin:miter;stroke-width:0.8;"/>
   </g>
   <g id="patch_5">
    <path d="M 57.6 307.584 
L 414.72 307.584 
" style="fill:none;stroke:#000000;stroke-linecap:square;stroke-linejoin:miter;stroke-width:0.8;"/>
   </g>
   <g id="patch_6">
    <path d="M 57.6 41.472 
L 414.72 41.472 
" style="fill:none;stroke:#000000;stroke-linecap:square;stroke-linejoin:miter;stroke-width:0.8;"/>
   </g>
   <g id="text_18">
    <text style="font-family:DejaVu Sans;font-size:12px;font-style:normal;font-weight:normal;text-anchor:middle;" transform="rotate(-0, 236.16, 35.472)" x="236.16" y="35.472">Coin Flips for log(1+x)</text>
   </g>
   <g id="legend_1">
    <g id="patch_7">
     <path d="M 64.6 302.584 
L 358.085938 302.584 
Q 360.085938 302.584 360.085938 300.584 
L 360.085938 272.22775 
Q 360.085938 270.22775 358.085938 270.22775 
L 64.6 270.22775 
Q 62.6 270.22775 62.6 272.22775 
L 62.6 300.584 
Q 62.6 302.584 64.6 302.584 
z
" style="fill:#ffffff;opacity:0.8;stroke:#cccccc;stroke-linejoin:miter;"/>
    </g>
    <g id="line2d_18">
     <path d="M 66.6 278.326187 
L 86.6 278.326187 
" style="fill:none;stroke:#1f77b4;stroke-linecap:square;stroke-width:1.5;"/>
    </g>
    <g id="line2d_19"/>
    <g id="text_19">
     <text style="font-family:DejaVu Sans;font-size:10px;font-style:normal;font-weight:normal;text-anchor:start;" transform="rotate(-0, 94.6, 281.826187)" x="94.6" y="281.826187">Coin Flip Lower Bound (Mendo)</text>
    </g>
    <g id="line2d_20">
     <path d="M 66.6 293.004312 
L 86.6 293.004312 
" style="fill:none;stroke:#ff7f0e;stroke-linecap:square;stroke-width:1.5;"/>
    </g>
    <g id="line2d_21"/>
    <g id="text_20">
     <text style="font-family:DejaVu Sans;font-size:10px;font-style:normal;font-weight:normal;text-anchor:start;" transform="rotate(-0, 94.6, 296.504312)" x="94.6" y="296.504312">Avg. Coins Flipped log(1+x) (Two-Coin Special Case)</text>
    </g>
   </g>
  </g>
 </g>
 <defs>
  <clipPath id="p52891f7efe">
   <rect height="266.112" width="357.12" x="57.6" y="41.472"/>
  </clipPath>
 </defs>
</svg>

<svg height="460.8" viewBox="0 0 460.8 345.6" width="614.4" xmlns="http://www.w3.org/2000/svg" xmlns:xlink="http://www.w3.org/1999/xlink"><defs><style>*{stroke-linecap:butt;stroke-linejoin:round}</style></defs><g id="figure_1"><path d="M0 345.6h460.8V0H0z" fill="#fff" id="patch_1"/><g id="axes_1"><path d="M57.6 307.584h357.12V41.472H57.6z" fill="#fff" id="patch_2"/><g id="matplotlib.axis_1"><g id="xtick_1"><g id="line2d_1"><defs><path d="M0 0v3.5" id="meeaad4805a" stroke="#000" stroke-width=".8"/></defs><use x="73.8" xlink:href="#meeaad4805a" y="307.584" stroke="#000" stroke-width=".8"/></g><text x="73.8" y="322.182" font-family="DejaVu Sans" font-size="10" font-weight="400" text-anchor="middle" id="text_1">0.0</text></g><g id="xtick_2"><use x="138.744" xlink:href="#meeaad4805a" y="307.584" stroke="#000" stroke-width=".8" id="line2d_2"/><text x="138.744" y="322.182" font-family="DejaVu Sans" font-size="10" font-weight="400" text-anchor="middle" id="text_2">0.2</text></g><g id="xtick_3"><use x="203.688" xlink:href="#meeaad4805a" y="307.584" stroke="#000" stroke-width=".8" id="line2d_3"/><text x="203.688" y="322.182" font-family="DejaVu Sans" font-size="10" font-weight="400" text-anchor="middle" id="text_3">0.4</text></g><g id="xtick_4"><use x="268.632" xlink:href="#meeaad4805a" y="307.584" stroke="#000" stroke-width=".8" id="line2d_4"/><text x="268.632" y="322.182" font-family="DejaVu Sans" font-size="10" font-weight="400" text-anchor="middle" id="text_4">0.6</text></g><g id="xtick_5"><use x="333.576" xlink:href="#meeaad4805a" y="307.584" stroke="#000" stroke-width=".8" id="line2d_5"/><text x="333.576" y="322.182" font-family="DejaVu Sans" font-size="10" font-weight="400" text-anchor="middle" id="text_5">0.8</text></g><g id="xtick_6"><use x="398.52" xlink:href="#meeaad4805a" y="307.584" stroke="#000" stroke-width=".8" id="line2d_6"/><text x="398.52" y="322.182" font-family="DejaVu Sans" font-size="10" font-weight="400" text-anchor="middle" id="text_6">1.0</text></g><text x="236.16" y="335.861" font-family="DejaVu Sans" font-size="10" font-weight="400" text-anchor="middle" id="text_7">Input Coin&apos;s Heads Probability (λ)</text></g><g id="matplotlib.axis_2"><g id="ytick_1"><g id="line2d_7"><defs><path d="M0 0h-3.5" id="ma27e46f1bc" stroke="#000" stroke-width=".8"/></defs><use x="57.6" xlink:href="#ma27e46f1bc" y="295.506" stroke="#000" stroke-width=".8"/></g><text x="50.6" y="299.306" font-family="DejaVu Sans" font-size="10" font-weight="400" text-anchor="end" id="text_8">0.0</text></g><g id="ytick_2"><use x="57.6" xlink:href="#ma27e46f1bc" y="264.329" stroke="#000" stroke-width=".8" id="line2d_8"/><text x="50.6" y="268.128" font-family="DejaVu Sans" font-size="10" font-weight="400" text-anchor="end" id="text_9">0.2</text></g><g id="ytick_3"><use x="57.6" xlink:href="#ma27e46f1bc" y="233.151" stroke="#000" stroke-width=".8" id="line2d_9"/><text x="50.6" y="236.95" font-family="DejaVu Sans" font-size="10" font-weight="400" text-anchor="end" id="text_10">0.4</text></g><g id="ytick_4"><use x="57.6" xlink:href="#ma27e46f1bc" y="201.973" stroke="#000" stroke-width=".8" id="line2d_10"/><text x="50.6" y="205.773" font-family="DejaVu Sans" font-size="10" font-weight="400" text-anchor="end" id="text_11">0.6</text></g><g id="ytick_5"><use x="57.6" xlink:href="#ma27e46f1bc" y="170.796" stroke="#000" stroke-width=".8" id="line2d_11"/><text x="50.6" y="174.595" font-family="DejaVu Sans" font-size="10" font-weight="400" text-anchor="end" id="text_12">0.8</text></g><g id="ytick_6"><use x="57.6" xlink:href="#ma27e46f1bc" y="139.618" stroke="#000" stroke-width=".8" id="line2d_12"/><text x="50.6" y="143.417" font-family="DejaVu Sans" font-size="10" font-weight="400" text-anchor="end" id="text_13">1.0</text></g><g id="ytick_7"><use x="57.6" xlink:href="#ma27e46f1bc" y="108.441" stroke="#000" stroke-width=".8" id="line2d_13"/><text x="50.6" y="112.24" font-family="DejaVu Sans" font-size="10" font-weight="400" text-anchor="end" id="text_14">1.2</text></g><g id="ytick_8"><use x="57.6" xlink:href="#ma27e46f1bc" y="77.263" stroke="#000" stroke-width=".8" id="line2d_14"/><text x="50.6" y="81.062" font-family="DejaVu Sans" font-size="10" font-weight="400" text-anchor="end" id="text_15">1.4</text></g><g id="ytick_9"><use x="57.6" xlink:href="#ma27e46f1bc" y="46.085" stroke="#000" stroke-width=".8" id="line2d_15"/><text x="50.6" y="49.885" font-family="DejaVu Sans" font-size="10" font-weight="400" text-anchor="end" id="text_16">1.6</text></g><text transform="rotate(-90 28.617 174.528)" x="28.617" y="174.528" font-family="DejaVu Sans" font-size="10" font-weight="400" text-anchor="middle" id="text_17">Coin Flips Needed</text></g><path clip-path="url(#p52891f7efe)" d="M73.833 139.642l3.28 2.338 3.278 2.296 3.28 2.253 3.28 2.213 3.278 2.174 3.28 2.137 3.28 2.1 3.278 2.065 3.28 2.032 3.28 1.999 3.278 1.967 3.28 1.937 3.28 1.908 3.278 1.88 3.28 1.851 3.28 1.826 3.278 1.8 3.28 1.776 3.28 1.752 3.279 1.73 3.279 1.707 3.28 1.686 3.279 1.666 3.279 1.646 3.28 1.627 3.279 1.608 3.279 1.591 3.28 1.574 3.279 1.558 3.279 1.543 3.28 1.527 3.279 1.513 3.279 1.499 3.28 1.486 3.279 1.473 3.279 1.461 3.28 1.45 3.279 1.439 3.279 1.428 3.28 1.419 3.279 1.409 3.279 1.4 3.28 1.392 3.279 1.383 3.279 1.377 3.28 1.37 3.279 1.363 3.279 1.357 3.28 1.352 3.279 1.347 3.279 1.343 3.28 1.338 3.279 1.335 3.279 1.332 3.28 1.33 3.279 1.326 3.279 1.326 3.28 1.324 3.279 1.324 3.28 1.324 3.278 1.324 3.28 1.324 3.28 1.326 3.278 1.328 3.28 1.33 3.28 1.333 3.278 1.337 3.28 1.34 3.28 1.345 3.278 1.35 3.28 1.355 3.28 1.362 3.278 1.368 3.28 1.376 3.28 1.384 3.278 1.392 3.28 1.402 3.28 1.412 3.278 1.423 3.28 1.434 3.28 1.446 3.279 1.46 3.279 1.472 3.28 1.488 3.279 1.503 3.279 1.52 3.28 1.536 3.279 1.555 3.279 1.575 3.28 1.594 3.279 1.616 3.279 1.64 3.28 1.661 3.279 1.688 3.279 1.713 3.28 1.742 3.279 1.77 3.279 1.802 3.28 1.833" fill="none" stroke="#1f77b4" stroke-linecap="square" stroke-width="1.5" id="line2d_16"/><path clip-path="url(#p52891f7efe)" d="M73.833 53.568l3.28 6.86 3.278-1.248 3.28 15.589 3.28-2.806 3.278-6.548 3.28 14.966 3.28-16.213 3.278-4.676 3.28 18.395 3.28-4.054 3.278-1.87 3.28 3.118 3.28-2.806 3.278 2.494 3.28 2.806 3.28.623 3.278-3.43 3.28 14.654 3.28-10.6 3.279-3.118 3.279 11.224 3.28 6.236 3.279-7.171 3.279-2.494 3.28 7.794 3.279 2.494 3.279-1.247 3.28 1.247 3.279.312 3.279 1.87 3.28-4.364 3.279 3.43 3.279-1.871 3.28-.624 3.279 7.483 3.279-6.86 3.28 4.054 3.279 3.43 3.279.935 3.28 1.87 3.279-3.741 3.279 7.794 3.28-4.365 3.279.624 3.279 4.988 3.28 2.495h3.279l3.279-.312 3.28 2.182 3.279-.623 3.279-.624 3.28-2.806 3.279-.935 3.279 7.794 3.28-2.494 3.279-1.247 3.279 5.612 3.28-3.741 3.279 4.364 3.28-2.494 3.278-1.247 3.28 2.494 3.28 1.56 3.278-1.56 3.28 1.871 3.28 4.988 3.278-3.117 3.28 1.247 3.28 4.053 3.278-2.494 3.28-1.247 3.28 3.117 3.278-.935 3.28 1.559 3.28 2.806 3.278-3.741 3.28 2.806 3.28 2.805 3.278.312 3.28-1.247 3.28-3.118 3.279 3.118 3.279 1.247 3.28-.623 3.279-.312 3.279 2.806 3.28 1.247 3.279.312h3.279l3.28 3.741 3.279-3.43h3.279l3.28 2.495h3.279l3.279 1.247 3.28-1.247 3.279 2.182H398.488" fill="none" stroke="#ff7f0e" stroke-linecap="square" stroke-width="1.5" id="line2d_17"/><path d="M57.6 307.584V41.472" fill="none" stroke="#000" stroke-linecap="square" stroke-width=".8" id="patch_3"/><path d="M414.72 307.584V41.472" fill="none" stroke="#000" stroke-linecap="square" stroke-width=".8" id="patch_4"/><path d="M57.6 307.584h357.12" fill="none" stroke="#000" stroke-linecap="square" stroke-width=".8" id="patch_5"/><path d="M57.6 41.472h357.12" fill="none" stroke="#000" stroke-linecap="square" stroke-width=".8" id="patch_6"/><text x="236.16" y="35.472" font-family="DejaVu Sans" font-size="12" font-weight="400" text-anchor="middle" id="text_18">Coin Flips for log(1+x)</text><g id="legend_1"><path d="M64.6 302.584h293.486q2 0 2-2v-28.356q0-2-2-2H64.6q-2 0-2 2v28.356q0 2 2 2z" fill="#fff" opacity=".8" stroke="#ccc" id="patch_7"/><path d="M66.6 278.326h20" fill="none" stroke="#1f77b4" stroke-linecap="square" stroke-width="1.5" id="line2d_18"/><text x="94.6" y="281.826" font-family="DejaVu Sans" font-size="10" font-weight="400" id="text_19">Coin Flip Lower Bound (Mendo)</text><path d="M66.6 293.004h20" fill="none" stroke="#ff7f0e" stroke-linecap="square" stroke-width="1.5" id="line2d_20"/><text x="94.6" y="296.504" font-family="DejaVu Sans" font-size="10" font-weight="400" id="text_20">Avg. Coins Flipped log(1+x) (Two-Coin Special Case)</text></g></g></g><defs><clipPath id="p52891f7efe"><path d="M57.6 41.472h357.12v266.112H57.6z"/></clipPath></defs></svg>
